static/kaleidocode-logo.svg

<svg fill="none" height="96" viewBox="0 0 96 96" width="96" xmlns="http://www.w3.org/2000/svg"><g fill="#4a4ae0"><path d="m37.35 52c-3.4-5.89-5.35-12.72-5.35-20 7.28 0 14.11 1.95 20 5.35-6.07 3.51-11.14 8.58-14.65 14.65z"/><path d="m64 32c0 7.28-1.95 14.11-5.35 20-3.51-6.07-8.58-11.14-14.65-14.65 5.89-3.4 12.72-5.35 20-5.35z"/><path d="m52 58.65c-5.89 3.4-12.72 5.35-20 5.35 0-7.28 1.95-14.11 5.35-20 3.51 6.07 8.58 11.14 14.65 14.65z"/><path d="m64 64c-7.28 0-14.11-1.95-20-5.35 6.07-3.51 11.14-8.58 14.65-14.65 3.4 5.89 5.35 12.72 5.35 20z"/><path d="m32 32c-11.84 0-22.184 6.432-27.72 16-2.72-4.712-4.28-10.176-4.28-16 0-17.672 14.328-32 32-32 5.824 0 11.288 1.56 16 4.28-9.568 5.536-16 15.88-16 27.72z"/><path d="m96 32c0 5.824-1.56 11.288-4.28 16-5.536-9.568-15.88-16-27.72-16 0-11.84-6.432-22.184-16-27.72 4.712-2.72 10.176-4.28 16-4.28 17.672 0 32 14.328 32 32z"/><path d="m32 64c0 11.84 6.432 22.184 16 27.72-4.712 2.72-10.176 4.28-16 4.28-17.672 0-32-14.328-32-32 0-5.824 1.56-11.288 4.28-16 5.536 9.568 15.88 16 27.72 16z"/><path d="m96 64c0 17.672-14.328 32-32 32-5.824 0-11.288-1.56-16-4.28 9.568-5.536 16-15.88 16-27.72 11.84 0 22.184-6.432 27.72-16 2.72 4.712 4.28 10.176 4.28 16z"/><path d="m48 60v-4c-4.8-3.2-7.3333-6.6667-8-8h-4c-3.2 3.2-4 12-4 16 9.6 0 14.6667-2.6667 16-4z"/><path d="m60 48h-4c-3.2 4.8-6.6667 7.3333-8 8v4c3.2 3.2 12 4 16 4 0-9.6-2.6667-14.6667-4-16z"/><path d="m48 36v4c4.8 3.2 7.3333 6.6667 8 8h4c3.2-3.2 4-12 4-16-9.6 0-14.6667 2.6667-16 4z"/><path d="m36 48h4c3.2-4.8 6.6667-7.3333 8-8v-4c-3.2-3.2-12-4-16-4 0 9.6 2.6667 14.6667 4 16z"/></g></svg>

<svg width="96" height="96" viewBox="0 0 96 96" fill="none" xmlns="http://www.w3.org/2000/svg">
<path d="M37.35 52C33.95 46.11 32 39.28 32 32C39.28 32 46.11 33.95 52 37.35C45.93 40.86 40.86 45.93 37.35 52Z" fill="#4A4AE0"/>
<path d="M64 32C64 39.28 62.05 46.11 58.65 52C55.14 45.93 50.07 40.86 44 37.35C49.89 33.95 56.72 32 64 32Z" fill="#4A4AE0"/>
<path d="M52 58.65C46.11 62.05 39.28 64 32 64C32 56.72 33.95 49.89 37.35 44C40.86 50.07 45.93 55.14 52 58.65Z" fill="#4A4AE0"/>
<path d="M64 64C56.72 64 49.89 62.05 44 58.65C50.07 55.14 55.14 50.07 58.65 44C62.05 49.89 64 56.72 64 64Z" fill="#4A4AE0"/>
<path d="M32 32C20.16 32 9.816 38.432 4.28 48C1.56 43.288 0 37.824 0 32C0 14.328 14.328 0 32 0C37.824 0 43.288 1.56 48 4.28C38.432 9.816 32 20.16 32 32Z" fill="#4A4AE0"/>
<path d="M96 32C96 37.824 94.44 43.288 91.72 48C86.184 38.432 75.84 32 64 32C64 20.16 57.568 9.816 48 4.28C52.712 1.56 58.176 0 64 0C81.672 0 96 14.328 96 32Z" fill="#4A4AE0"/>
<path d="M32 64C32 75.84 38.432 86.184 48 91.72C43.288 94.44 37.824 96 32 96C14.328 96 0 81.672 0 64C0 58.176 1.56 52.712 4.28 48C9.816 57.568 20.16 64 32 64Z" fill="#4A4AE0"/>
<path d="M96 64C96 81.672 81.672 96 64 96C58.176 96 52.712 94.44 48 91.72C57.568 86.184 64 75.84 64 64C75.84 64 86.184 57.568 91.72 48C94.44 52.712 96 58.176 96 64Z" fill="#4A4AE0"/>
<path d="M48 60V56C43.2 52.8 40.6667 49.3333 40 48H36C32.8 51.2 32 60 32 64C41.6 64 46.6667 61.3333 48 60Z" fill="#4A4AE0"/>
<path d="M60 48H56C52.8 52.8 49.3333 55.3333 48 56V60C51.2 63.2 60 64 64 64C64 54.4 61.3333 49.3333 60 48Z" fill="#4A4AE0"/>
<path d="M48 36V40C52.8 43.2 55.3333 46.6667 56 48H60C63.2 44.8 64 36 64 32C54.4 32 49.3333 34.6667 48 36Z" fill="#4A4AE0"/>
<path d="M36 48H40C43.2 43.2 46.6667 40.6667 48 40V36C44.8 32.8 36 32 32 32C32 41.6 34.6667 46.6667 36 48Z" fill="#4A4AE0"/>
</svg>
